X:220
T: EIN LANDSKNECHT WARD GEFANGEN
N: B0708
O: Europa, Mitteleuropa, Deutschland, Rheinland, Westfalen
R: Scherz - Lied
M: 4/4
L: 1/8
K: F
FA | c3dc2B2 | A3Bc2
c2 | d2c2B2A2 | G4z2
FA | c2c2c2f2 | d3BB2
B2 | A2A2G2G2 | FGABc3
B | A2A2G2G2 | F4z2

